flaticon/army-badges/medal-4.svg

<svg xmlns="http://www.w3.org/2000/svg" width="32" height="32" viewBox="0 0 24 24">
    <path d="M 12 8.601562 C 10.679688 8.601562 9.601562 9.679688 9.601562 11 C 9.601562 11.242188 9.761719 11.398438 10 11.398438 C 10.242188 11.398438 10.402344 11.242188 10.402344 11 C 10.402344 10.121094 11.121094 9.402344 12 9.402344 C 12.238281 9.402344 12.398438 9.242188 12.398438 9 C 12.398438 8.761719 12.238281 8.601562 12 8.601562 Z M 12 8.601562"/>
    <path d="M 22.515625 17.398438 L 23.917969 15.679688 C 23.996094 15.558594 24.035156 15.359375 23.957031 15.238281 C 23.875 15.078125 23.757812 15 23.597656 15 L 20.796875 15 L 20.796875 13.800781 C 20.796875 13.558594 20.636719 13.398438 20.398438 13.398438 L 20.246094 13.398438 C 20.269531 13.371094 20.292969 13.347656 20.316406 13.320312 C 20.597656 13 20.835938 12.601562 20.996094 12.199219 L 22.011719 9.632812 C 22.039062 9.59375 22.058594 9.546875 22.066406 9.496094 L 22.636719 8.054688 C 22.675781 8.003906 22.703125 7.941406 22.710938 7.867188 L 23.265625 6.472656 C 23.316406 6.414062 23.347656 6.335938 23.355469 6.242188 L 23.957031 4.722656 C 23.996094 4.601562 23.996094 4.480469 23.917969 4.363281 C 23.835938 4.28125 23.714844 4.203125 23.597656 4.203125 L 17.597656 4.203125 C 17.4375 4.203125 17.316406 4.28125 17.199219 4.402344 L 15.992188 6.519531 C 14.933594 5.574219 13.535156 5.003906 12 5.003906 C 10.453125 5.003906 9.042969 5.585938 7.980469 6.542969 L 6.761719 4.402344 C 6.679688 4.28125 6.5625 4.203125 6.402344 4.203125 L 0.402344 4.203125 C 0.285156 4.203125 0.164062 4.324219 0.0820312 4.402344 C 0.00390625 4.480469 -0.0351562 4.640625 0.0429688 4.761719 L 0.652344 6.289062 C 0.660156 6.347656 0.683594 6.398438 0.710938 6.441406 L 1.296875 7.910156 C 1.304688 7.949219 1.320312 7.988281 1.339844 8.023438 L 1.941406 9.53125 C 1.949219 9.554688 1.957031 9.582031 1.96875 9.605469 L 3.003906 12.199219 C 3.164062 12.601562 3.402344 13 3.683594 13.320312 C 3.707031 13.347656 3.730469 13.371094 3.753906 13.398438 L 3.601562 13.398438 C 3.363281 13.398438 3.203125 13.558594 3.203125 13.800781 L 3.203125 15 L 0.402344 15 C 0.242188 15 0.125 15.117188 0.0429688 15.199219 C -0.0351562 15.359375 0.00390625 15.519531 0.0820312 15.640625 L 1.484375 17.398438 L 0.0820312 19.117188 C 0.00390625 19.238281 -0.0351562 19.4375 0.0429688 19.558594 C 0.125 19.71875 0.242188 19.796875 0.402344 19.796875 L 4.800781 19.796875 C 5.042969 19.796875 5.203125 19.636719 5.203125 19.398438 L 5.203125 18.199219 L 18.796875 18.199219 L 18.796875 19.398438 C 18.796875 19.636719 18.957031 19.796875 19.199219 19.796875 L 23.597656 19.796875 C 23.757812 19.796875 23.875 19.71875 23.957031 19.597656 C 24.035156 19.4375 23.996094 19.277344 23.917969 19.15625 Z M 4.800781 17.398438 L 4.003906 17.398438 L 4.003906 14.199219 L 19.996094 14.199219 L 19.996094 17.398438 Z M 8.800781 11 C 8.800781 9.242188 10.242188 7.800781 12 7.800781 C 13.757812 7.800781 15.199219 9.242188 15.199219 11 C 15.199219 11.921875 14.800781 12.800781 14.121094 13.398438 L 9.878906 13.398438 C 9.199219 12.800781 8.800781 11.921875 8.800781 11 Z M 17.839844 5.003906 L 22.996094 5.003906 L 22.683594 5.800781 L 20.796875 5.800781 C 20.558594 5.800781 20.398438 5.960938 20.398438 6.203125 C 20.398438 6.441406 20.558594 6.601562 20.796875 6.601562 L 22.367188 6.601562 L 22.054688 7.402344 L 20.398438 7.402344 C 20.15625 7.402344 19.996094 7.5625 19.996094 7.800781 C 19.996094 8.042969 20.15625 8.199219 20.398438 8.199219 L 21.738281 8.199219 L 21.425781 9 L 19.597656 9 C 19.359375 9 19.199219 9.160156 19.199219 9.402344 C 19.199219 9.640625 19.359375 9.800781 19.597656 9.800781 L 21.109375 9.800781 L 20.277344 11.921875 C 20.117188 12.238281 19.957031 12.558594 19.71875 12.839844 C 19.558594 13.039062 19.359375 13.238281 19.117188 13.398438 L 17.496094 13.398438 C 17.546875 13.28125 17.59375 13.15625 17.640625 13.035156 C 17.886719 12.402344 18 11.703125 18 11 C 18 10.953125 17.996094 10.90625 17.996094 10.855469 C 17.996094 10.839844 17.996094 10.824219 17.996094 10.804688 C 17.992188 10.773438 17.992188 10.746094 17.992188 10.714844 C 17.988281 10.695312 17.988281 10.671875 17.988281 10.652344 C 17.988281 10.625 17.984375 10.601562 17.984375 10.574219 C 17.980469 10.550781 17.980469 10.527344 17.976562 10.503906 C 17.976562 10.480469 17.972656 10.457031 17.972656 10.433594 C 17.96875 10.410156 17.96875 10.386719 17.964844 10.359375 C 17.960938 10.339844 17.960938 10.324219 17.957031 10.304688 C 17.953125 10.273438 17.953125 10.246094 17.949219 10.21875 C 17.949219 10.21875 17.949219 10.214844 17.945312 10.214844 C 17.9375 10.132812 17.921875 10.050781 17.910156 9.964844 C 17.910156 9.964844 17.910156 9.964844 17.910156 9.960938 C 17.902344 9.925781 17.894531 9.890625 17.886719 9.851562 C 17.886719 9.84375 17.886719 9.835938 17.882812 9.828125 C 17.875 9.792969 17.871094 9.757812 17.863281 9.722656 C 17.859375 9.714844 17.859375 9.707031 17.855469 9.699219 C 17.847656 9.660156 17.839844 9.625 17.832031 9.585938 C 17.828125 9.582031 17.828125 9.578125 17.828125 9.574219 C 17.609375 8.667969 17.183594 7.84375 16.605469 7.152344 Z M 12 5.800781 C 13.429688 5.800781 14.71875 6.371094 15.65625 7.300781 C 15.671875 7.367188 15.710938 7.433594 15.757812 7.480469 C 16.679688 8.441406 17.160156 9.679688 17.160156 11 C 17.160156 11.84375 16.957031 12.652344 16.582031 13.398438 L 15.199219 13.398438 C 15.707031 12.710938 16 11.867188 16 11 C 16 8.800781 14.199219 7 12 7 C 9.800781 7 8 8.800781 8 11 C 8 11.890625 8.289062 12.722656 8.8125 13.398438 L 7.402344 13.398438 C 7.203125 13.042969 7.054688 12.660156 6.957031 12.261719 C 6.953125 12.25 6.949219 12.238281 6.949219 12.230469 C 6.941406 12.195312 6.933594 12.164062 6.925781 12.132812 C 6.917969 12.105469 6.914062 12.078125 6.910156 12.050781 C 6.902344 12.027344 6.898438 12.007812 6.894531 11.984375 C 6.886719 11.949219 6.882812 11.914062 6.875 11.882812 C 6.875 11.863281 6.871094 11.84375 6.867188 11.828125 C 6.863281 11.789062 6.855469 11.753906 6.851562 11.714844 C 6.847656 11.699219 6.847656 11.679688 6.84375 11.664062 C 6.839844 11.625 6.835938 11.589844 6.832031 11.550781 C 6.828125 11.535156 6.828125 11.515625 6.824219 11.496094 C 6.820312 11.460938 6.820312 11.425781 6.816406 11.386719 C 6.816406 11.371094 6.8125 11.351562 6.8125 11.332031 C 6.808594 11.292969 6.808594 11.253906 6.808594 11.21875 C 6.804688 11.199219 6.804688 11.183594 6.804688 11.164062 C 6.800781 11.109375 6.800781 11.054688 6.800781 11 C 6.800781 10.957031 6.800781 10.917969 6.804688 10.875 C 6.804688 10.84375 6.804688 10.8125 6.804688 10.78125 C 6.808594 10.773438 6.808594 10.765625 6.808594 10.757812 C 6.863281 9.558594 7.339844 8.378906 8.203125 7.480469 C 8.234375 7.449219 8.257812 7.414062 8.273438 7.371094 C 9.214844 6.402344 10.535156 5.800781 12 5.800781 Z M 4.324219 12.800781 C 4.082031 12.519531 3.882812 12.199219 3.761719 11.878906 L 2.929688 9.800781 L 4.402344 9.800781 C 4.640625 9.800781 4.800781 9.640625 4.800781 9.402344 C 4.800781 9.160156 4.640625 9 4.402344 9 L 2.609375 9 L 2.285156 8.203125 L 3.601562 8.203125 C 3.84375 8.203125 4.003906 8.042969 4.003906 7.800781 C 4.003906 7.5625 3.84375 7.402344 3.601562 7.402344 L 1.964844 7.402344 L 1.644531 6.601562 L 3.203125 6.601562 C 3.441406 6.601562 3.601562 6.441406 3.601562 6.203125 C 3.601562 5.960938 3.441406 5.800781 3.203125 5.800781 L 1.324219 5.800781 L 1.003906 5.003906 L 6.160156 5.003906 L 7.394531 7.152344 C 6.816406 7.84375 6.390625 8.667969 6.171875 9.574219 C 6.171875 9.578125 6.171875 9.582031 6.167969 9.585938 C 6.160156 9.625 6.152344 9.660156 6.144531 9.699219 C 6.140625 9.707031 6.140625 9.714844 6.136719 9.722656 C 6.128906 9.757812 6.125 9.792969 6.117188 9.828125 C 6.113281 9.835938 6.113281 9.84375 6.113281 9.851562 C 6.105469 9.890625 6.097656 9.925781 6.089844 9.960938 C 6.089844 9.964844 6.089844 9.964844 6.089844 9.964844 C 6.078125 10.050781 6.0625 10.132812 6.054688 10.214844 C 6.050781 10.214844 6.050781 10.21875 6.050781 10.21875 C 6.046875 10.246094 6.046875 10.273438 6.042969 10.304688 C 6.039062 10.324219 6.039062 10.339844 6.035156 10.359375 C 6.03125 10.386719 6.03125 10.410156 6.027344 10.433594 C 6.027344 10.457031 6.023438 10.480469 6.023438 10.503906 C 6.019531 10.527344 6.019531 10.550781 6.015625 10.574219 C 6.015625 10.601562 6.011719 10.625 6.011719 10.652344 C 6.011719 10.671875 6.011719 10.695312 6.007812 10.714844 C 6.007812 10.746094 6.007812 10.773438 6.003906 10.804688 C 6.003906 10.824219 6.003906 10.839844 6.003906 10.855469 C 6.003906 10.90625 6 10.953125 6 11 C 6 11.058594 6.003906 11.113281 6.003906 11.167969 C 6.027344 11.933594 6.199219 12.691406 6.503906 13.398438 L 4.882812 13.398438 C 4.640625 13.238281 4.441406 13.039062 4.324219 12.800781 Z M 4.402344 18.996094 L 1.242188 18.996094 L 2.324219 17.636719 C 2.441406 17.519531 2.441406 17.320312 2.324219 17.160156 L 1.242188 15.800781 L 3.203125 15.800781 L 3.203125 17.796875 C 3.203125 18.039062 3.363281 18.199219 3.601562 18.199219 L 4.402344 18.199219 Z M 19.597656 18.996094 L 19.597656 18.199219 L 20.398438 18.199219 C 20.636719 18.199219 20.796875 18.039062 20.796875 17.796875 L 20.796875 15.796875 L 22.757812 15.796875 L 21.675781 17.160156 C 21.558594 17.277344 21.558594 17.476562 21.675781 17.636719 L 22.757812 18.996094 Z M 19.597656 18.996094"/>
</svg>

<svg xmlns="http://www.w3.org/2000/svg" width="32" height="32" viewBox="0 0 24 24">
    <path d="M12 8.602A2.404 2.404 0 0 0 9.602 11c0 .242.16.398.398.398.242 0 .402-.156.402-.398 0-.879.72-1.598 1.598-1.598.238 0 .398-.16.398-.402 0-.238-.16-.398-.398-.398zm0 0"/>
    <path d="M22.516 17.398l1.402-1.718c.078-.121.117-.32.039-.442-.082-.16-.2-.238-.36-.238h-2.8v-1.2c0-.241-.16-.402-.399-.402h-.152c.024-.027.047-.05.07-.078.282-.32.52-.718.68-1.12l1.016-2.567a.326.326 0 0 0 .054-.137l.57-1.441a.366.366 0 0 0 .075-.188l.555-1.394a.395.395 0 0 0 .09-.23l.601-1.52a.394.394 0 0 0-.039-.36c-.082-.082-.203-.16-.32-.16h-6c-.16 0-.282.078-.399.2L15.992 6.52A5.968 5.968 0 0 0 12 5.004a5.986 5.986 0 0 0-4.02 1.539l-1.218-2.14a.418.418 0 0 0-.36-.2h-6c-.117 0-.238.121-.32.2a.302.302 0 0 0-.039.359l.61 1.527c.007.059.03.11.058.152l.586 1.47c.008.038.023.077.043.112l.601 1.508c.008.024.016.051.028.074L3.004 12.2c.16.403.398.801.68 1.121.023.028.046.051.07.078h-.152c-.239 0-.399.16-.399.403V15h-2.8c-.16 0-.278.117-.36.2a.44.44 0 0 0 .039.44l1.402 1.758-1.402 1.72c-.078.12-.117.32-.039.44.082.16.2.239.36.239H4.8c.242 0 .402-.16.402-.399V18.2h13.594v1.2c0 .238.16.398.402.398h4.399c.16 0 .277-.078.359-.2a.44.44 0 0 0-.039-.44zm-17.715 0h-.797V14.2h15.992v3.2zM8.8 11A3.21 3.21 0 0 1 12 7.8a3.21 3.21 0 0 1 3.2 3.2c0 .922-.4 1.8-1.079 2.398H9.88A3.203 3.203 0 0 1 8.8 11zm9.039-5.996h5.156l-.312.797h-1.887c-.238 0-.399.16-.399.402 0 .238.16.399.399.399h1.57l-.312.8h-1.657c-.242 0-.402.16-.402.399 0 .242.16.398.402.398h1.34L21.426 9h-1.828c-.239 0-.399.16-.399.402 0 .239.16.399.399.399h1.511l-.832 2.12c-.16.317-.32.638-.558.919-.16.2-.36.398-.602.558h-1.62c.05-.117.097-.242.144-.363A5.64 5.64 0 0 0 18 11c0-.047-.004-.094-.004-.145v-.05c-.004-.032-.004-.059-.004-.09-.004-.02-.004-.043-.004-.063 0-.027-.004-.05-.004-.078-.004-.023-.004-.047-.007-.07 0-.024-.004-.047-.004-.07-.004-.024-.004-.047-.008-.075-.004-.02-.004-.035-.008-.054-.004-.032-.004-.059-.008-.086 0 0 0-.004-.004-.004-.008-.082-.023-.164-.035-.25V9.96l-.023-.11c0-.007 0-.015-.004-.023-.008-.035-.012-.07-.02-.105-.004-.008-.004-.016-.008-.024l-.023-.113c-.004-.004-.004-.008-.004-.012a5.953 5.953 0 0 0-1.223-2.422zM12 5.8c1.43 0 2.719.57 3.656 1.5a.393.393 0 0 0 .102.18C16.68 8.44 17.16 9.68 17.16 11a5.31 5.31 0 0 1-.578 2.398h-1.383c.508-.687.801-1.53.801-2.398 0-2.2-1.8-4-4-4s-4 1.8-4 4c0 .89.29 1.723.813 2.398h-1.41a4.527 4.527 0 0 1-.446-1.136c-.004-.012-.008-.024-.008-.032a3.684 3.684 0 0 0-.023-.097.606.606 0 0 1-.016-.082.409.409 0 0 1-.015-.067c-.008-.035-.012-.07-.02-.101a.23.23 0 0 0-.008-.055c-.004-.039-.012-.074-.015-.113-.004-.016-.004-.035-.008-.05l-.012-.114c-.004-.016-.004-.035-.008-.055-.004-.035-.004-.07-.008-.11 0-.015-.003-.034-.003-.054-.004-.039-.004-.078-.004-.113-.004-.02-.004-.035-.004-.055C6.8 11.11 6.8 11.054 6.8 11c0-.043 0-.082.004-.125v-.094c.004-.008.004-.015.004-.023A5.068 5.068 0 0 1 8.203 7.48a.293.293 0 0 0 .07-.109A5.177 5.177 0 0 1 12 5.801zm-7.676 7a3.164 3.164 0 0 1-.562-.922L2.93 9.8h1.472c.239 0 .399-.16.399-.399C4.8 9.16 4.64 9 4.402 9H2.61l-.324-.797h1.317c.242 0 .402-.16.402-.402 0-.239-.16-.399-.402-.399H1.965l-.32-.8h1.558c.238 0 .399-.16.399-.399 0-.242-.16-.402-.399-.402H1.324l-.32-.797H6.16l1.235 2.148a5.953 5.953 0 0 0-1.223 2.422c0 .004 0 .008-.004.012l-.023.113c-.004.008-.004.016-.008.024-.008.035-.012.07-.02.105-.004.008-.004.016-.004.024l-.023.109v.004c-.012.086-.027.168-.035.25-.004 0-.004.004-.004.004-.004.027-.004.054-.008.086-.004.02-.004.035-.008.054-.004.028-.004.051-.008.075 0 .023-.004.046-.004.07-.003.023-.003.047-.007.07 0 .028-.004.051-.004.078 0 .02 0 .043-.004.063 0 .031 0 .058-.004.09v.05c0 .051-.004.098-.004.145 0 .059.004.113.004.168.023.766.195 1.523.5 2.23H4.883a1.568 1.568 0 0 1-.559-.597zm.078 6.195h-3.16l1.082-1.36c.117-.116.117-.316 0-.476L1.242 15.8h1.961v1.997c0 .242.16.402.399.402h.8zm15.196 0V18.2h.8c.239 0 .399-.16.399-.402v-2h1.96l-1.081 1.363c-.117.117-.117.317 0 .477l1.082 1.36zm0 0"/>
</svg>
